fa/person-military-pointing.svg

<svg xmlns="http://www.w3.org/2000/svg" viewBox="0 0 512 512" height="1em" width="1em">
  <path d="M366.7 1.443C376 .666 384 8.027 384 17.39V47.1c0 9.74-7.2 16-16 16H216.1C203.2 63.1 192 52.81 192 39c0-13.9 9.1-23.83 22.9-24.91L366.7 1.443zM208 111.1c0-4.6.6-9.9 1.6-16h156.8c1.1 6.1 1.6 11.4 1.6 16 0 45.1-35.8 80-80 80s-80-34.9-80-80zm105.2 112c14.4 0 28.4 3.2 41.7 7.4L192 393.4v-90.3H40.01c-22.09 0-40.002-17-40.002-40 0-21.2 17.912-40 40.002-40H313.2zm117.1 67.7 76.1 128.9c11.3 19 5 43.5-14 54.7-19.1 11.3-43.6 5-54.8-14.1L384 369.7V416H214.6l171.1-171.1c18 11.4 33.4 27 44.6 45.9zM384 448v32c0 17.7-14.3 32-32 32H224c-17.7 0-32-14.3-32-32v-32h192z"/>
</svg>

<svg xmlns="http://www.w3.org/2000/svg" viewBox="0 0 512 512" height="1em" width="1em">
  <path d="M366.7 1.443C376 .6658 384 8.027 384 17.39V47.1C384 56.84 376.8 63.1 368 63.1H216.1C203.2 63.1 192 52.81 192 39C192 25.1 201.1 15.17 214.9 14.09L366.7 1.443zM208 111.1C208 106.5 208.6 101.2 209.6 95.1H366.4C367.5 101.2 368 106.5 368 111.1C368 156.2 332.2 191.1 288 191.1C243.8 191.1 208 156.2 208 111.1V111.1zM313.2 223.1C327.6 223.1 341.6 226.3 354.9 230.5L192 393.4V303.1H40.01C17.92 303.1 .0077 286.1 .0077 263.1C.0077 241.9 17.92 223.1 40.01 223.1H313.2zM430.3 290.8L506.4 419.7C517.7 438.7 511.4 463.2 492.4 474.4C473.3 485.7 448.8 479.4 437.6 460.3L384 369.7V416H214.6L385.7 244.9C403.7 256.3 419.1 271.9 430.3 290.8V290.8zM384 448V480C384 497.7 369.7 512 352 512H224C206.3 512 192 497.7 192 480V448H384z"/>
</svg>
